src/images/Ubuntu-Logo_weiss.svg

<?xml version="1.0" encoding="UTF-8" standalone="no"?>
<svg
   width="35.090897"
   height="36.063641"
   viewBox="0 0 35.090897 36.063641"
   version="1.1"
   xml:space="preserve"
   style="clip-rule:evenodd;fill-rule:evenodd;stroke-linejoin:round;stroke-miterlimit:2"
   id="svg535"
   xmlns="http://www.w3.org/2000/svg"
   xmlns:svg="http://www.w3.org/2000/svg"><defs
   id="defs539">
        
    
            
            
        
                
                
                
                
                
                
                
                
                
                
                
                
                
            </defs>
    
<path
   style="fill:#ffffff;stroke-width:0.0704442"
   d="m 28.001581,35.994243 c -1.973593,-0.396146 -3.312719,-2.296695 -3.006428,-4.266862 0.282397,-1.816416 1.905308,-3.198683 3.75557,-3.198683 1.958956,0 3.724075,1.765119 3.724075,3.724075 0,2.351788 -2.205637,4.196616 -4.473217,3.74147 z m -8.664638,-3.85059 c -1.541882,-0.133894 -3.340677,-0.604222 -4.774986,-1.248502 -0.383762,-0.172379 -0.402585,-0.192218 -0.323869,-0.34135 0.280212,-0.530864 2.703378,-4.752864 2.769421,-4.825297 0.06371,-0.06989 0.203671,-0.04536 0.676548,0.118656 1.015585,0.352182 1.67779,0.457664 2.88566,0.459654 1.200585,0.0019 1.837953,-0.09933 2.866255,-0.455636 3.041977,-1.054026 5.320352,-3.819383 5.760749,-6.992033 l 0.04657,-0.335695 2.196907,0.03857 c 1.208296,0.02121 2.524009,0.0566 2.923802,0.07864 l 0.726896,0.04008 -0.04721,0.468389 c -0.296321,2.940769 -1.613737,5.917507 -3.617056,8.172803 l -0.27338,0.307772 -0.554416,-0.213529 c -2.556457,-0.984621 -5.476066,0.178877 -6.622919,2.639323 -0.199299,0.427585 -0.364549,0.997489 -0.489528,1.688252 -0.03333,0.184052 -0.121081,0.207669 -1.273306,0.342451 -0.815322,0.09537 -2.135802,0.121748 -2.876178,0.05749 z M 11.6233,29.110804 C 10.439088,28.210891 8.966571,26.566382 8.156782,25.239383 7.775279,24.61422 7.186936,23.416265 6.939798,22.761413 l -0.195942,-0.51919 0.238339,-0.180822 c 0.877501,-0.665711 1.622509,-1.846676 1.899263,-3.010641 0.04564,-0.191967 0.0818,-0.697729 0.08034,-1.123917 -0.005,-1.454292 -0.462526,-2.582345 -1.459488,-3.5982 C 7.192356,14.012814 6.859876,13.702232 6.763465,13.638461 L 6.588176,13.522514 6.827153,12.816543 C 7.100506,12.009021 7.843019,10.49672 8.347456,9.7200901 8.881991,8.8971217 9.633389,7.9872068 10.396523,7.2387498 c 0.646702,-0.6342651 1.55003,-1.3909911 1.662227,-1.392463 0.04379,-5.629e-4 3.086761,4.8194852 3.086761,4.8894212 0,0.01664 -0.326336,0.357599 -0.72519,0.757699 -1.30738,1.311464 -2.067706,2.74501 -2.422073,4.566664 -0.151563,0.779122 -0.152434,2.367073 -0.0018,3.134769 0.358271,1.824932 1.215575,3.414626 2.533226,4.697336 l 0.555866,0.54113 -1.429392,2.540803 c -0.786166,1.397449 -1.446314,2.540219 -1.466995,2.539506 -0.02068,-7.22e-4 -0.275354,-0.181987 -0.565936,-0.402811 z M 2.872831,21.586213 C 2.19822,21.422667 1.630379,21.08938 1.08595,20.537433 0.34462,19.785865 0,18.95741 0,17.926843 c 0,-2.690669 2.803667,-4.51193 5.283318,-3.43204 0.494766,0.215471 1.142658,0.742764 1.477328,1.202338 1.132766,1.555531 0.984156,3.53073 -0.367411,4.883331 -0.941957,0.942678 -2.245,1.314939 -3.520404,1.005741 z m 26.361523,-4.989109 c 0,-0.184903 -0.258003,-1.294559 -0.399247,-1.717127 -0.428567,-1.282193 -1.097315,-2.355022 -2.101516,-3.371346 -1.682966,-1.7032793 -3.75943,-2.5685657 -6.163874,-2.5685657 -1.054039,0 -1.901156,0.137375 -2.852992,0.4626627 C 17.172032,9.5888753 16.994546,9.6242008 16.934069,9.5585026 16.891048,9.5117698 16.292428,8.4749883 15.603799,7.2545425 14.915169,6.0340958 14.290725,4.9336862 14.216146,4.8091878 L 14.08055,4.5828269 14.560197,4.3645443 c 1.199925,-0.5460744 2.736906,-0.9820351 4.093523,-1.1611197 1.017034,-0.134257 2.945022,-0.1339672 3.817992,5.629e-4 0.368073,0.056731 0.688649,0.1037084 0.712404,0.1044027 0.0237,7.045e-4 0.06527,0.301888 0.09221,0.6693185 0.146151,1.9910611 1.215989,3.6437848 2.893706,4.4703194 0.852069,0.4197754 1.336561,0.5290282 2.324654,0.5242013 1.021994,-0.005 1.50931,-0.1200696 2.413398,-0.5699168 0.358763,-0.1785087 0.660916,-0.3116612 0.67146,-0.2958945 0.01055,0.015766 0.164241,0.2030158 0.341572,0.4161094 1.272452,1.5291025 2.355445,3.7702965 2.842363,5.8820935 0.139708,0.605931 0.332722,1.945723 0.286905,1.991541 -0.01842,0.01844 -0.851171,0.0593 -1.850511,0.09081 -0.999332,0.03149 -2.300399,0.07554 -2.891244,0.09788 -0.590854,0.02233 -1.074281,0.02785 -1.074281,0.01225 z M 27.790255,7.4643247 C 25.827661,7.0703931 24.48785,5.1663886 24.792354,3.2039986 24.955826,2.1504265 25.730094,1.025733 26.657002,0.49541057 27.109287,0.2366376 27.990314,-0.00168976 28.48835,9.0271703e-6 29.480933,0.00343438 30.395288,0.38788799 31.130025,1.1108474 32.320916,2.2826588 32.598592,3.9500069 31.857846,5.4812021 31.593891,6.0268276 30.800497,6.822696 30.238916,7.1051816 29.4776,7.4881327 28.571188,7.6210751 27.790255,7.4643247 Z"
   id="path576" /></svg>

<svg xmlns="http://www.w3.org/2000/svg" xml:space="preserve" style="clip-rule:evenodd;fill-rule:evenodd;stroke-linejoin:round;stroke-miterlimit:2" viewBox="0 0 35.091 36.064"><path d="M28.002 35.994c-1.974-.396-3.313-2.296-3.007-4.267.283-1.816 1.905-3.198 3.756-3.198 1.959 0 3.724 1.765 3.724 3.724 0 2.352-2.206 4.196-4.473 3.741zm-8.665-3.85c-1.542-.134-3.34-.605-4.775-1.249-.384-.172-.403-.192-.324-.341.28-.531 2.703-4.753 2.77-4.825.063-.07.203-.046.676.118 1.016.352 1.678.458 2.886.46 1.2.002 1.838-.1 2.866-.456 3.042-1.054 5.32-3.82 5.76-6.992l.047-.336 2.197.039c1.208.021 2.524.057 2.924.079l.727.04-.047.468c-.297 2.94-1.614 5.918-3.617 8.173l-.274.308-.554-.214c-2.557-.984-5.476.18-6.623 2.64-.2.427-.365.997-.49 1.688-.033.184-.12.207-1.273.342-.815.096-2.136.122-2.876.058zm-7.714-3.033c-1.184-.9-2.656-2.545-3.466-3.872-.382-.625-.97-1.823-1.217-2.478l-.196-.519.238-.18c.878-.666 1.623-1.847 1.9-3.011.045-.192.081-.698.08-1.124-.005-1.454-.463-2.583-1.46-3.598-.31-.316-.642-.627-.739-.69l-.175-.116.24-.706c.273-.808 1.015-2.32 1.52-3.097a15.466 15.466 0 0 1 2.049-2.481c.646-.635 1.55-1.391 1.662-1.393.044 0 3.087 4.82 3.087 4.89 0 .016-.327.357-.726.757-1.307 1.312-2.067 2.745-2.422 4.567-.151.78-.152 2.367-.002 3.135a8.823 8.823 0 0 0 2.534 4.697l.556.541-1.43 2.541c-.786 1.398-1.446 2.54-1.467 2.54-.02-.001-.275-.182-.566-.403zm-8.75-7.525c-.675-.163-1.243-.497-1.787-1.049C.345 19.786 0 18.957 0 17.927c0-2.69 2.804-4.512 5.283-3.432.495.215 1.143.743 1.478 1.202 1.132 1.556.984 3.53-.368 4.883-.942.943-2.245 1.315-3.52 1.006zm26.361-4.989c0-.185-.258-1.294-.399-1.717-.428-1.282-1.097-2.355-2.101-3.371-1.683-1.704-3.76-2.569-6.164-2.569-1.054 0-1.901.137-2.853.463-.545.186-.722.221-.783.156-.043-.047-.642-1.084-1.33-2.304-.689-1.22-1.313-2.321-1.388-2.446l-.135-.226.48-.218c1.2-.547 2.736-.982 4.093-1.162 1.017-.134 2.945-.134 3.818.001.368.057.688.104.712.104.024.001.065.302.092.67.146 1.99 1.216 3.643 2.894 4.47.852.42 1.337.53 2.325.524 1.022-.005 1.509-.12 2.413-.57.359-.178.661-.311.672-.296.01.016.164.203.341.417 1.273 1.529 2.356 3.77 2.842 5.882.14.606.333 1.945.287 1.991-.018.019-.85.06-1.85.091s-2.3.076-2.891.098c-.591.022-1.075.028-1.075.012zM27.79 7.464c-1.962-.394-3.302-2.298-2.998-4.26.164-1.054.938-2.178 1.865-2.709.452-.258 1.333-.497 1.831-.495.993.003 1.907.388 2.642 1.11 1.19 1.173 1.469 2.84.728 4.371-.264.546-1.058 1.342-1.62 1.624-.76.383-1.667.516-2.448.36Z" style="fill:#fff;stroke-width:.0704442"/></svg>
